X: 7
T: KEEL ROW
S: "Community Dances Manual 5", EFDSS, Michael Bell ed., 1957 p._
R: reel
Z: 2010 John Chambers <jc:trillian.mit.edu>
M: 2/4
L: 1/16
K: G
dc |\
"G"B2GB "D7"c2Ac | "G"B2GB "D"AFDc | "G"B2GB "Am"c2Ac | "D7"BGAF "G"G2dc |
"G"B2GB "D7"c2Ac | "G"B2GB "D"AFDc | "G"B2GB "Am"c2Ac | "D7"BGAF "G"G2 ||
c2 |\
"G"Bddg "C"e2dc | "G"BAGB "D"AFDc | "G"Bddg "C"e2dc | "D7"BGAF "G"G2c2 |
"G"Bddg "C"e2dc | "G"BAGB "D"AFDc | "G"Bddg "C"e2dc | "D7"BGAF "G"G4 |]


%%sep 5 1 500

%%sep 1 1 500

